assets/svg/social/discord.svg

<svg width="22" height="25" viewBox="0 0 22 25" fill="none" xmlns="http://www.w3.org/2000/svg">
<path d="M8.72462 10.4875C8.00805 10.4875 7.44234 11.1125 7.44234 11.875C7.44234 12.6375 8.02062 13.2625 8.72462 13.2625C9.44119 13.2625 10.0069 12.6375 10.0069 11.875C10.0195 11.1125 9.44119 10.4875 8.72462 10.4875ZM13.3132 10.4875C12.5966 10.4875 12.0309 11.1125 12.0309 11.875C12.0309 12.6375 12.6092 13.2625 13.3132 13.2625C14.0298 13.2625 14.5955 12.6375 14.5955 11.875C14.5955 11.1125 14.0298 10.4875 13.3132 10.4875Z" fill="currentColor"/>
<path d="M19.4229 0H2.57714C1.15657 0 0 1.15 0 2.575V19.475C0 20.9 1.15657 22.05 2.57714 22.05H16.8331L16.1669 19.7375L17.776 21.225L19.2971 22.625L22 25V2.575C22 1.15 20.8434 0 19.4229 0ZM14.5703 16.325C14.5703 16.325 14.1177 15.7875 13.7406 15.3125C15.3874 14.85 16.016 13.825 16.016 13.825C15.5006 14.1625 15.0103 14.4 14.5703 14.5625C13.9417 14.825 13.3383 15 12.7474 15.1C11.5406 15.325 10.4343 15.2625 9.49143 15.0875C8.77486 14.95 8.15886 14.75 7.64343 14.55C7.35429 14.4375 7.04 14.3 6.72571 14.125C6.688 14.1 6.65029 14.0875 6.61257 14.0625C6.58743 14.05 6.57486 14.0375 6.56229 14.025C6.336 13.9 6.21029 13.8125 6.21029 13.8125C6.21029 13.8125 6.81371 14.8125 8.41029 15.2875C8.03314 15.7625 7.568 16.325 7.568 16.325C4.78971 16.2375 3.73371 14.425 3.73371 14.425C3.73371 10.4 5.544 7.1375 5.544 7.1375C7.35429 5.7875 9.07657 5.825 9.07657 5.825L9.20229 5.975C6.93943 6.625 5.896 7.6125 5.896 7.6125C5.896 7.6125 6.17257 7.4625 6.63771 7.25C7.98286 6.6625 9.05143 6.5 9.49143 6.4625C9.56686 6.45 9.62971 6.4375 9.70514 6.4375C10.472 6.3375 11.3394 6.3125 12.2446 6.4125C13.4389 6.55 14.7211 6.9 16.0286 7.6125C16.0286 7.6125 15.0354 6.675 12.8983 6.025L13.0743 5.825C13.0743 5.825 14.7966 5.7875 16.6069 7.1375C16.6069 7.1375 18.4171 10.4 18.4171 14.425C18.4171 14.425 17.3486 16.2375 14.5703 16.325Z" fill="currentColor"/>
</svg>

<svg viewBox="0 0 22 25" fill="none" xmlns="http://www.w3.org/2000/svg">
    <path d="M8.725 10.488c-.717 0-1.283.625-1.283 1.387s.579 1.387 1.283 1.387c.716 0 1.282-.625 1.282-1.387.013-.762-.566-1.387-1.282-1.387zm4.588 0c-.716 0-1.282.625-1.282 1.387s.578 1.387 1.282 1.387c.717 0 1.282-.625 1.282-1.387s-.565-1.387-1.282-1.387z" fill="currentColor"/>
    <path d="M19.423 0H2.577A2.576 2.576 0 000 2.575v16.9a2.576 2.576 0 002.577 2.575h14.256l-.666-2.313 1.609 1.488 1.521 1.4L22 25V2.575A2.576 2.576 0 0019.423 0zM14.57 16.325s-.452-.537-.83-1.012c1.647-.463 2.276-1.488 2.276-1.488a7.209 7.209 0 01-1.446.738 8.31 8.31 0 01-1.823.537 8.856 8.856 0 01-3.256-.012 10.599 10.599 0 01-1.848-.538 7.387 7.387 0 01-.917-.425c-.038-.025-.076-.037-.113-.063a.14.14 0 01-.05-.037c-.227-.125-.353-.213-.353-.213s.604 1 2.2 1.476a86.12 86.12 0 01-.842 1.037c-2.778-.087-3.834-1.9-3.834-1.9 0-4.025 1.81-7.288 1.81-7.288 1.81-1.35 3.533-1.312 3.533-1.312l.125.15c-2.263.65-3.306 1.638-3.306 1.638s.277-.15.742-.363c1.345-.588 2.413-.75 2.853-.787.076-.013.139-.026.214-.026a10.29 10.29 0 016.323 1.175s-.993-.937-3.13-1.587l.176-.2s1.723-.038 3.533 1.313c0 0 1.81 3.262 1.81 7.287 0 0-1.068 1.813-3.847 1.9z" fill="currentColor"/>
</svg>
